Sources/FrostedUI/Resources/Icons.xcassets/arrowFatDownFilled20.imageset/arrow-fat-down-filled-20.svg

<svg width="20" height="20" viewBox="0 0 20 20" fill="none" xmlns="http://www.w3.org/2000/svg" data-fui-icon="true">
  <path
    d="M3.66096 12.5818C3.07951 11.9066 3.55923 10.8604 4.4503 10.8604H6.66664V3.15206C6.66664 2.34664 7.31956 1.69373 8.12498 1.69373H11.875C12.6804 1.69373 13.3333 2.34665 13.3333 3.15206V10.8604H15.5496C16.4407 10.8604 16.9205 11.9066 16.339 12.5818L11.105 18.6599C10.5232 19.3356 9.47671 19.3356 8.89488 18.6599L3.66096 12.5818Z"
    fill="currentColor"
  />
</svg>

<svg xmlns="http://www.w3.org/2000/svg" width="20" height="20" fill="none" data-fui-icon="true" viewBox="0 0 20 20"><path fill="currentColor" d="M3.661 12.582c-.581-.675-.102-1.722.79-1.722h2.216V3.152c0-.805.653-1.458 1.458-1.458h3.75c.805 0 1.458.653 1.458 1.458v7.708h2.217c.89 0 1.37 1.047.789 1.722l-5.234 6.078a1.458 1.458 0 0 1-2.21 0z"/></svg>
